app/assets/images/icons/facebook.svg

<?xml version="1.0" encoding="UTF-8" standalone="no"?>
<svg width="30px" height="30px" viewBox="0 0 30 30" version="1.1" xmlns="http://www.w3.org/2000/svg" xmlns:xlink="http://www.w3.org/1999/xlink">
    <!-- Generator: Sketch 3.7.2 (28276) - http://www.bohemiancoding.com/sketch -->
    <title>facebook</title>
    <desc>Created with Sketch.</desc>
    <defs></defs>
    <g id="Icons" stroke="none" stroke-width="1" fill="none" fill-rule="evenodd">
        <g id="facebook" fill="#050505">
            <path d="M21,30 L14,30 L3.9992748,30 C1.79053632,30 0,28.2132053 0,26.0007252 L0,3.9992748 C0,1.79053632 1.78679466,0 3.9992748,0 L26.0007252,0 C28.2094637,0 30,1.78679466 30,3.9992748 L30,26.0007252 C30,28.2094637 28.2132053,30 26.0007252,30 L21,30 L21,28 L26.0029953,28 C27.1050211,28 28,27.1059106 28,26.0029953 L28,3.99700466 C28,2.89497885 27.1059106,2 26.0029953,2 L3.99700466,2 C2.89497885,2 2,2.89408944 2,3.99700466 L2,26.0029953 C2,27.1050211 2.89408944,28 3.99700466,28 L16.0276106,28 L16.0276106,20.0811782 L12.8999939,20.0811782 L12.8999939,16.4590656 L16.0276106,16.4590656 L16.0276106,13.7878564 C16.0276106,10.6879911 17.9208501,9 20.686209,9 C22.0108248,9 23.149376,9.0986198 23.4810887,9.14276125 L23.4810887,12.3824078 L21.5630778,12.383246 C20.0592888,12.383246 19.7680856,13.0978903 19.7680856,14.1465755 L19.7680856,16.4590656 L23.3548106,16.4590656 L22.8876936,20.0811782 L19.7680856,20.0811782 L19.7680856,28 L21,28 L21,30 Z" id="Rectangle-118"></path>
        </g>
    </g>
</svg>

<?xml version="1.0" encoding="UTF-8" standalone="no"?>
<svg width="30" height="30" viewBox="0 0 30 30" xmlns="http://www.w3.org/2000/svg">
  <path d="M21 30H4c-2.21 0-4-1.787-4-4V4c0-2.21 1.787-4 4-4h22c2.21 0 4 1.787 4 4v22c0 2.21-1.787 4-4 4h-5v-2h5.003A1.998 1.998 0 0 0 28 26.003V3.997A1.998 1.998 0 0 0 26.003 2H3.997A1.998 1.998 0 0 0 2 3.997v22.006C2 27.105 2.894 28 3.997 28h12.03v-7.919H12.9V16.46h3.128v-2.671c0-3.1 1.893-4.788 4.658-4.788 1.325 0 2.463.099 2.795.143v3.24h-1.918c-1.504 0-1.795.715-1.795 1.764v2.312h3.587l-.467 3.622h-3.12V28H21v2z" fill="#050505" fill-rule="evenodd"/>
</svg>
